X:1
T:I Will Pray
T:I Will Pray
T:William Howard Doane
T:Sarah Bliss Thresher, 1893
T:Public Domain Courtesy of the Cyber Hymnal™
C:William Howard Doane
Z:Public Domain
Z:Courtesy of the Cyber Hymnal™
%%score ( 1 2 ) ( 3 4 )
L:1/8
Q:1/4=107
M:4/4
K:G
V:1 treble 
V:2 treble 
V:3 bass 
V:4 bass 
V:1
 (GA) | [GB]2 [GB]2 [DG]2 [DG]2 | [GB]2 [GB]2 [DG]2 [DG]2 | (AB) (cA) [Gd]2 ([GB][DA]) | %4
w: 1.~With *|fold- ed hands up-|on my breast, When|day- * light * fades a- *|
w: 2.~When *|morn- ing sun is|shin- ing bright, My|hands * I’ll * lift in *|
w: 3.~Oft *|I will raise my|prayer- ful eyes All|thro’ * the * bu- sy *|
 [DG]6 (GA) | [GB]2 [GB]2 [DG]2 [DG]2 | [GB]2 [=Fd]2 !fermata![Ec]2"^riten." ([EG][_EA]) | %7
w: way; Sin- *|cere- ly, hum- bly|I will pray, O *|
w: prayer; Keep *|me in safe- ty|ev- ery- where, And *|
w: day; Deep *|in my heart I’ll|soft- ly say, O *|
 [DB]2 [DG]2 [DB]2 [DG]2 | [DA]2 (GF) [DG]4 ||"^Refrain" [GB] [Gd]3 [GB]2 [DG]2 | [DA]6 [FA]>[GB] | %11
w: Je- sus, watch me|while I * rest.|Morn- ing, noon and|night I will|
w: help me al- ways|choose the * right.|||
w: Sav- ior, make me|good and * wise.|||
 [Ac]6 [GB]>[FA] | [GB]6 (Bc) | [Gd]2 [Gd]2 [GB]2 [=FG]2 | [Ec]6 [EG]>[_EA] | [DB]6 [DB]>[DA] | %16
w: pray, I will|pray; O *|keep me by Thy|might, I will|pray, I will|
w: |||||
w: |||||
 [DG]6 |] %17
w: pray.|
w: |
w: |
V:2
 D2 | x8 | x8 | E2 E2 x4 | x6 D2 | x8 | x8 | x8 | x2 D2 x4 || x8 | x8 | x8 | x6 G2 | x8 | x8 | x8 | %16
 x6 |] %17
V:3
 (B,C) | [G,D]2 [G,D]2 [G,B,]2 [G,B,]2 | [G,D]2 [G,D]2 [G,B,]2 [B,,G,]2 | %3
w: |||
 ([C,G,][B,,^G,]) A,2 [D,B,]2 (DC) | [G,B,]6 (B,C) | [G,D]2 [G,D]2 [G,B,]2 [G,B,]2 | %6
w: * * I * * *|||
 [G,D]2 [B,,G,]2 !fermata![C,G,]2 [C,G,]2 | [D,G,]2 [D,B,]2 [D,G,]2 [D,B,]2 | %8
w: ||
 [D,C]2 (B,A,) [G,,B,]4 || [G,D] [G,B,]3 [G,D]2 [B,,G,]2 | [D,F,]2 [D,F,]>[D,F,] [D,F,]2 z2 | %11
w: ||* will pray, I|
 z2 [D,D]>[D,D] [D,D]2 z2 | z2 [G,D]>[G,D] [G,D]2 (DA,) | [G,B,]2 [G,B,]2 [G,D]2 [G,B,]2 | %14
w: will pray I|will pray, Thy * *||
 [C,G,]2 [C,G,]2 [C,G,]2 [C,G,]>[C,G,] | [D,G,]2 [D,G,]>[D,G,] [D,G,]2 [D,F,]>[D,C] | [G,,B,]6 |] %17
w: * might, I * *|* will pray. * * *||
V:4
 G,2 | x8 | x8 | x2 (A,,C,) x D,2 x | x6 G,2 | x8 | x8 | x8 | x2 D,2 x4 || x8 | x8 | x8 | x6 G,2 | %13
 x8 | x8 | x8 | x6 |] %17

